X:1
T:Title
%%score { ( 1 3 ) | ( 2 4 ) }
L:1/8
M:6/4
K:F
V:1 treble nm="Grand Piano"
V:3 treble 
V:2 bass 
V:4 bass 
V:1
 z6 z4[Q:1/4=123] FG | A2 _A2 =A2 c4 [EA][EG] | F2 E2 F2 [^CA]4 [A,CF][K:bass][G,CE] | %3
 [F,D]2[K:treble] [G,DE]2 [F,DF]2 [=B,DG]2 [B,D]2 [B,FA]2 | [CEG]6- [CEG]4 FG | %5
 A2 _A2 =A2 c4 [CEA][=B,EG] |[M:5/4] [A,DF]2 [B,DG]2 [C^FA]2 [DGB]4 |[M:1/4] [CA] z | %8
[M:6/4] [A,CF]2 [G,CE]2 [A,CF]2 [CFA]2 [CFA]3 [B,EG] |[M:5/4] [A,CF]2- [A,CF]2- [A,CF]6 | %10
[M:1/4] [FA][GB] |[M:6/4] [FAc]3 [_A=B] [F=Ac]2 [CFA]4 [CFc]2 |[M:5/4] [CEB]2- [CEB]2- [CEB]6 | %13
[M:1/4] [EG][FA] |[M:6/4] [CEB]3 [EA] [CEB]2 [Be]4 [EBd]2 | %15
[M:7/4] [FAc]2- [FAc]2- [FAc]2- [FAc]6 [CAc]2 |[M:6/4] c3 =B c2 A A3 [_EAc]2 | %17
 [DAc]3 [DGB] [D^FA]2 [DGB]6 | [CEA]3 [B,CG] [A,CF]2 [B,CG]3 [A,CF] [G,CE]2 | %19
[M:5/4] [F,F]4- [F,-DF-]2 [F,CF]4 |] %20
V:2
 z6 z4 [F,A,][F,B,F] | [F,CF]2 [F,=B,F]2 [F,CF]2 [F,A,F]4 [C,C][C,B,] | %2
 [D,A,D]2 [D,G,D]2 [D,F,D]2 [A,,E,]4 A,,A,, | B,,2 B,,2 B,,2 G,,2 G,,2 G,,2 | %4
 C,6- C,4 [F,A,][F,B,F] | [F,CF]2 [F,=B,F]2 [F,CF]2 [F,A,F]4 C,C, |[M:5/4] D,2 D,2 D,2 G,,4 | %7
[M:1/4] A,,B,, |[M:6/4] C,2 C,2 C,2 C,2 C,3 C, |[M:5/4] F,2- F,2- F,6 |[M:1/4] CC | %11
[M:6/4] z2 z F C,2 F,2 F,2 A,2 |[M:5/4] G,4 C,2[K:treble] G,4 |[M:1/4] CC | %14
[M:6/4] z2 z C[K:bass] C,2 C3 D C,2 |[M:7/4] F,4 C,2 F,6 F,2 | %16
[M:6/4] [F,A,F]3 [F,_A,F] [F,=A,F]2 [F,CF] [F,CF]3 ^F,2 | A,3 G, D,2 G,6 | C,3 C, C,2 C,3 C, C,2 | %19
[M:5/4] z4 B,2 A,4 |] %20
V:3
 x12 | x12 | x11[K:bass] x | x2[K:treble] x10 | x12 | x12 |[M:5/4] x10 |[M:1/4] D-[B,DG] | %8
[M:6/4] x12 |[M:5/4] x10 |[M:1/4] x2 |[M:6/4] x12 |[M:5/4] x10 |[M:1/4] x2 |[M:6/4] x12 | %15
[M:7/4] x14 |[M:6/4] x12 | x12 | x12 |[M:5/4] [A,C]4 z2 z4 |] %20
V:4
 x12 | x12 | x12 | x12 | x12 | x12 |[M:5/4] x10 |[M:1/4] x2 |[M:6/4] x12 |[M:5/4] x10 |[M:1/4] x2 | %11
[M:6/4] .F,6 z6 |[M:5/4] x6[K:treble] x4 |[M:1/4] x2 |[M:6/4] .G,6[K:bass] G,2 .G,4 |[M:7/4] x14 | %16
[M:6/4] x12 | x12 | x12 |[M:5/4] F,,2- F,,2- F,,6 |] %20

